findly-builder/apps/searchassist/src/assets/icons/sidemenu/new-icons/add-source.svg

<svg width="16" height="11" viewBox="0 0 16 11" fill="none" xmlns="http://www.w3.org/2000/svg">
<path d="M2.0001 0.199767C1.52271 0.199767 1.06488 0.389409 0.727312 0.726975C0.389746 1.06454 0.200104 1.52238 0.200104 1.99977C0.200104 2.47716 0.389746 2.93499 0.727312 3.27256C1.06488 3.61013 1.52271 3.79977 2.0001 3.79977C2.47749 3.79977 2.93533 3.61013 3.2729 3.27256C3.61046 2.93499 3.8001 2.47716 3.8001 1.99977C3.8001 1.52238 3.61046 1.06454 3.2729 0.726975C2.93533 0.389409 2.47749 0.199767 2.0001 0.199767ZM6.2001 0.199767C6.1206 0.198643 6.04166 0.213331 5.96788 0.24298C5.8941 0.272628 5.82694 0.316644 5.77032 0.372471C5.7137 0.428298 5.66874 0.494821 5.63805 0.568176C5.60736 0.64153 5.59156 0.720252 5.59156 0.799767C5.59156 0.879282 5.60736 0.958005 5.63805 1.03136C5.66874 1.10471 5.7137 1.17124 5.77032 1.22706C5.82694 1.28289 5.8941 1.32691 5.96788 1.35655C6.04166 1.3862 6.1206 1.40089 6.2001 1.39977H15.2001C15.2796 1.40089 15.3585 1.3862 15.4323 1.35655C15.5061 1.32691 15.5733 1.28289 15.6299 1.22706C15.6865 1.17124 15.7315 1.10471 15.7622 1.03136C15.7928 0.958005 15.8087 0.879282 15.8087 0.799767C15.8087 0.720252 15.7928 0.64153 15.7622 0.568176C15.7315 0.494821 15.6865 0.428298 15.6299 0.372471C15.5733 0.316644 15.5061 0.272628 15.4323 0.24298C15.3585 0.213331 15.2796 0.198643 15.2001 0.199767H6.2001ZM6.2001 2.59977C6.1206 2.59864 6.04166 2.61333 5.96788 2.64298C5.8941 2.67263 5.82694 2.71665 5.77032 2.77247C5.7137 2.8283 5.66874 2.89482 5.63805 2.96818C5.60736 3.04153 5.59156 3.12025 5.59156 3.19977C5.59156 3.27928 5.60736 3.35801 5.63805 3.43136C5.66874 3.50471 5.7137 3.57124 5.77032 3.62706C5.82694 3.68289 5.8941 3.72691 5.96788 3.75656C6.04166 3.7862 6.1206 3.80089 6.2001 3.79977H12.8001C12.8796 3.80089 12.9585 3.7862 13.0323 3.75656C13.1061 3.72691 13.1733 3.68289 13.2299 3.62706C13.2865 3.57124 13.3315 3.50471 13.3622 3.43136C13.3928 3.35801 13.4086 3.27928 13.4086 3.19977C13.4086 3.12025 13.3928 3.04153 13.3622 2.96818C13.3315 2.89482 13.2865 2.8283 13.2299 2.77247C13.1733 2.71665 13.1061 2.67263 13.0323 2.64298C12.9585 2.61333 12.8796 2.59864 12.8001 2.59977H6.2001ZM2.0001 6.79977C1.52271 6.79977 1.06488 6.98941 0.727312 7.32698C0.389746 7.66454 0.200104 8.12238 0.200104 8.59977C0.200104 9.07716 0.389746 9.535 0.727312 9.87256C1.06488 10.2101 1.52271 10.3998 2.0001 10.3998C2.47749 10.3998 2.93533 10.2101 3.2729 9.87256C3.61046 9.535 3.8001 9.07716 3.8001 8.59977C3.8001 8.12238 3.61046 7.66454 3.2729 7.32698C2.93533 6.98941 2.47749 6.79977 2.0001 6.79977ZM6.2001 6.79977C6.1206 6.79864 6.04166 6.81333 5.96788 6.84298C5.8941 6.87263 5.82694 6.91665 5.77032 6.97247C5.7137 7.0283 5.66874 7.09482 5.63805 7.16818C5.60736 7.24153 5.59156 7.32025 5.59156 7.39977C5.59156 7.47928 5.60736 7.55801 5.63805 7.63136C5.66874 7.70471 5.7137 7.77124 5.77032 7.82706C5.82694 7.88289 5.8941 7.92691 5.96788 7.95656C6.04166 7.9862 6.1206 8.00089 6.2001 7.99977H15.2001C15.2796 8.00089 15.3585 7.9862 15.4323 7.95656C15.5061 7.92691 15.5733 7.88289 15.6299 7.82706C15.6865 7.77124 15.7315 7.70471 15.7622 7.63136C15.7928 7.55801 15.8087 7.47928 15.8087 7.39977C15.8087 7.32025 15.7928 7.24153 15.7622 7.16818C15.7315 7.09482 15.6865 7.0283 15.6299 6.97247C15.5733 6.91665 15.5061 6.87263 15.4323 6.84298C15.3585 6.81333 15.2796 6.79864 15.2001 6.79977H6.2001ZM6.2001 9.19977C6.1206 9.19864 6.04166 9.21333 5.96788 9.24298C5.8941 9.27263 5.82694 9.31665 5.77032 9.37247C5.7137 9.4283 5.66874 9.49482 5.63805 9.56818C5.60736 9.64153 5.59156 9.72025 5.59156 9.79977C5.59156 9.87928 5.60736 9.95801 5.63805 10.0314C5.66874 10.1047 5.7137 10.1712 5.77032 10.2271C5.82694 10.2829 5.8941 10.3269 5.96788 10.3566C6.04166 10.3862 6.1206 10.4009 6.2001 10.3998H12.8001C12.8796 10.4009 12.9585 10.3862 13.0323 10.3566C13.1061 10.3269 13.1733 10.2829 13.2299 10.2271C13.2865 10.1712 13.3315 10.1047 13.3622 10.0314C13.3928 9.95801 13.4086 9.87928 13.4086 9.79977C13.4086 9.72025 13.3928 9.64153 13.3622 9.56818C13.3315 9.49482 13.2865 9.4283 13.2299 9.37247C13.1733 9.31665 13.1061 9.27263 13.0323 9.24298C12.9585 9.21333 12.8796 9.19864 12.8001 9.19977H6.2001Z" fill="black"/>
</svg>

<svg width="16" height="11" fill="none" xmlns="http://www.w3.org/2000/svg"><path d="M2 .2a1.8 1.8 0 1 0 0 3.6A1.8 1.8 0 0 0 2 .2Zm4.2 0a.6.6 0 1 0 0 1.2h9a.6.6 0 1 0 0-1.2h-9Zm0 2.4a.6.6 0 1 0 0 1.2h6.6a.6.6 0 1 0 0-1.2H6.2ZM2 6.8a1.8 1.8 0 1 0 0 3.6 1.8 1.8 0 0 0 0-3.6Zm4.2 0a.6.6 0 1 0 0 1.2h9a.6.6 0 1 0 0-1.2h-9Zm0 2.4a.6.6 0 1 0 0 1.2h6.6a.601.601 0 0 0 .232-1.157.6.6 0 0 0-.232-.043H6.2Z" fill="#000"/></svg>
